build/static/img/icons/search.svg

<svg width="24" height="24" viewBox="0 0 24 24" fill="none" xmlns="http://www.w3.org/2000/svg">
<path d="M23.9279 22.2749L16.1369 14.4839C17.3459 12.9209 17.9999 11.01 17.9999 8.99996C17.9999 6.59397 17.0609 4.33798 15.3629 2.63699C13.6649 0.935996 11.403 0 8.99996 0C6.59697 0 4.33498 0.938996 2.63699 2.63699C0.935996 4.33498 0 6.59397 0 8.99996C0 11.403 0.938996 13.6649 2.63699 15.3629C4.33498 17.0639 6.59397 17.9999 8.99996 17.9999C11.01 17.9999 12.9179 17.3459 14.4809 16.1399L22.2719 23.9279C22.2947 23.9508 22.3219 23.9689 22.3517 23.9813C22.3816 23.9936 22.4136 24 22.4459 24C22.4782 24 22.5102 23.9936 22.5401 23.9813C22.5699 23.9689 22.5971 23.9508 22.6199 23.9279L23.9279 22.6229C23.9508 22.6001 23.9689 22.5729 23.9813 22.5431C23.9936 22.5132 24 22.4812 24 22.4489C24 22.4166 23.9936 22.3846 23.9813 22.3547C23.9689 22.3249 23.9508 22.2977 23.9279 22.2749V22.2749ZM13.7519 13.7519C12.4799 15.0209 10.794 15.7199 8.99996 15.7199C7.20597 15.7199 5.51998 15.0209 4.24798 13.7519C2.97899 12.4799 2.27999 10.794 2.27999 8.99996C2.27999 7.20597 2.97899 5.51698 4.24798 4.24798C5.51998 2.97899 7.20597 2.27999 8.99996 2.27999C10.794 2.27999 12.4829 2.97599 13.7519 4.24798C15.0209 5.51998 15.7199 7.20597 15.7199 8.99996C15.7199 10.794 15.0209 12.4829 13.7519 13.7519Z" fill="white"/>
</svg>

<svg width="24" height="24" fill="none" xmlns="http://www.w3.org/2000/svg"><path d="M23.928 22.275l-7.791-7.791A8.919 8.919 0 0018 9a8.946 8.946 0 00-2.637-6.363A8.933 8.933 0 009 0a8.946 8.946 0 00-6.363 2.637A8.928 8.928 0 000 9c0 2.403.939 4.665 2.637 6.363A8.928 8.928 0 009 18c2.01 0 3.918-.654 5.48-1.86l7.792 7.788a.246.246 0 00.348 0l1.308-1.305a.246.246 0 000-.348zm-10.176-8.523A6.684 6.684 0 019 15.72a6.684 6.684 0 01-4.752-1.968A6.684 6.684 0 012.28 9c0-1.794.699-3.483 1.968-4.752A6.684 6.684 0 019 2.28c1.794 0 3.483.696 4.752 1.968A6.684 6.684 0 0115.72 9a6.678 6.678 0 01-1.968 4.752z" fill="#fff"/></svg>
